X:1
T:[ID 3-57]
T:[ID 3-57]
T:Bezeichnung standardisiert: Presto Presto
T:Urheber unbekannt Datum in der hier transkribierten schriftlichen Quelle: 1767
C:Urheber unbekannt
C:Datum in der hier transkribierten schriftlichen Quelle: 1767
%%score 1 2
L:1/8
M:6/8
K:D
V:1 treble nm="Primo"
V:2 treble nm="Secondo"
V:1
 d3 f3 | a3 f3 | dAd fdf | a3 f3 | bag gab | agf fga | g2 f g2 f | e6 :: e2 A A2 e | f2 d d2 f | %10
 g2 f e2 d | a3 z a2 | bgg bgg | aff aff | gee gee | fga agf | e3 z a2 | bGG aFF | gEE fdd | %19
 c3 e a2 | fad edc | d6 :| %22
V:2
 !fermata!F3 A3 | d3 A3 | FFF dAd | f3 d3 | gfe efg | fed def | Bcd Bcd | A6 :: A2 e e2 A | %9
 d2 F F2 d | e2 d c2 F | d3 z f2 | gee gee | fdd fdd | eAA eAA | def fed | A3 z f2 | gBB fAA | %18
 eGG dFF | A3 A f2 | dfF AFA | F6 :| %22

